X: 272
T:Sarah's Jig
% Nottingham Music Database
S:Bob McQuillan, via Phil Rowe
M:6/8
K:D
"D"DEF "A"EFG|"D"F2D DFG|"D"AFA "G"B2c|"D"d3 -d2A|"G"Bcd dcB|
"D"A2d AFG|"D"A2d "Bm"AGF|"Em"E2F "A7"GFE|"D"DEF "A"EFG|"D"F2D DFG|
"D"AFA "G"B2c|"D"d3 -"A"d2e|"D"fgf "A"efe|"Bm"ded "F#m"cBA|"G"Bcd "A7"ecA|\
"D"d3 -d3
|:"D"fgf fed|"A"ecA Ade|"D"fgf fed|"A7"ecA A2G|
"D"FGA "G"GAB|"A"ABc "G"dcB|"Em"Agf "A7"edc|"D"d3 -d3:|<end>
<start>
